X: 1
T: Jimmy Kennedy's
M: 6/8
L: 1/8
R: jig
K: Dmaj
|:B|AFD D2B|ABG FED|FAd fed|cAA A2G|
ABG FED|BdB AFA|dfa gfe|fdc d2:|
|:g|afd gfe|dcd AFA|DFA def|gfg efg|
afd edc|dAG FGA|dfa gfe|fdc d2:|
